!!!!SEGMENT: pl-kk--kk-i-7--013_anonim--et-in-terra-pax.krn
!!!cenid: 16xx:803
!!!COM: Anonim
!!!COM-rismid: pe30004985
!!!CDT:
!!!CNT:
!!!OTL: Et in terra pax
!!!PDT:
!!!AGN: Sacred
!!!SMS-siglum: PL-Kk
!!!SMS-shelfmark: Kk.I.7
!!!SMS-shelfwork: 013 W
!!!SMS-variant:
!!!SMS-altvar:
!!!NIFC-rismid: 300258090
!!!URL-scan: http://repozytorium.nifc.pl/skany/pl-kk-nut--i-7
!!!ONB-nifc: UWAGA: C (skan 0009-0010, s.13-15), A (0096-0097, s.12-15), T(0173-0174, s.10-12), B(0261-0262, s.13-15). Następny utwór: Tollite portas
**kern	**text	**kern	**text	**kern	**text	**kern	**text
*part4	*part4	*part3	*part3	*part2	*part2	*part1	*part1
*staff4	*staff4	*staff3	*staff3	*staff2	*staff2	*staff1	*staff1
*Ibass	*	*Itenor	*	*Ialto	*	*Isoprn	*
*I"[BASSVS.]	*	*I"[TENOR.]	*	*I"[ALTVS.]	*	*I"[CANTVS.]	*
*I'B	*	*I'T	*	*I'A	*	*I'C	*
*clefF4	*	*clefC4	*	*clefC4	*	*clefC3	*
*k[]	*	*k[]	*	*k[]	*	*k[]	*
*C:	*	*C:	*	*C:	*	*C:	*
*M2/1	*	*M2/1	*	*M2/1	*	*M2/1	*
*met(c|)	*	*met(c|)	*	*met(c|)	*	*met(c|)	*
=1-	=1-	=1-	=1-	=1-	=1-	=1-	=1-
*all\right	*	*all\right	*	*all\right	*	*all\right	*
*	*	*	*	*2\right	*	*	*
2r	.	1G	Et	2d\	ET	2r	.
*2\right	*	*	*	*	*	*2\right	*
2G\	Et	.	.	2e\	.	2g\	Et
*	*	*lig	*	*	*	*	*
2A\	in	1c	in	2c\	in	2e\	in
2F\	ter-	.	.	2f\	ter-	2.a\	ter-
=2-	=2-	=2-	=2-	=2-	=2-	=2-	=2-
1G	-ra	1B	.	1.d	-ra	.	.
.	.	.	.	.	.	4g\	.
.	.	.	.	.	.	1g	-ra
*	*	*Xlig	*	*	*	*	*
*	*	*lig	*	*	*	*	*
1D	pax	1A	.	.	.	.	.
!	!	!	!	!	!	!LO:TX:a:t=P:problem:# above	!
.	.	.	.	2d\	pax	2f#X\	.
=3-	=3-	=3-	=3-	=3-	=3-	=3-	=3-
2r	.	1G	.	2B\	ho-	2g\	pax
*	*ij	*	*	*	*	*	*ij
1G\	et	.	.	2B\	-mi-	1d	Et
*	*	*Xlig	*	*	*	*	*
*	*	*lig	*	*	*	*	*
.	.	1B	ter-	2d\	-ni-	.	.
2G\	in	.	.	2G/	-bus	2e\	in
=4-	=4-	=4-	=4-	=4-	=4-	=4-	=4-
2F\	ter-	1c	.	4A/	ho-	2fny\	ter-
.	.	.	.	4B\	.	.	.
2A\	-ra	.	.	1c	.	4e\	-ra
.	.	.	.	.	.	4f\	.
*	*	*Xlig	*	*	*	*	*
0G	pax	1d	.	.	.	1g	pax
.	.	.	.	4B\	-mi-	.	.
.	.	.	.	4A\	.	.	.
=5-	=5-	=5-	=5-	=5-	=5-	=5-	=5-
.	.	1d	-ra	2B\	.	2g\	Et
.	.	.	.	2B\	-ni-	1g	in
*	*	*lig	*	*	*	*	*
2r	.	1c	pax	2c\	-b(us)	.	.
2C/	et	.	.	1G/	Et	2e\	ter-
=6-	=6-	=6-	=6-	=6-	=6-	=6-	=6-
2G\	in	1B	.	.	.	2.d\	.
1G\	ter-	.	.	2d\	in	.	.
.	.	.	.	.	.	4d\	-ra
*	*	*Xlig	*	*	*	*	*
*	*	*lig	*	*	*	*	*
!	!	!	!	!LO:TX:a:t=P:problem:# above	!	!	!
.	.	1A	ho-	2c#X\	ter-	2e\	pax
*	*	*	*	*	*	*	*Xij
!	!	!	!	!LO:SIC:v:t=custos e	!	!	!
2F\	-ra	.	.	2d\	-ra	2f\	ho-
!	!	!	!	!LO:PB:g=original	!	!	!
=7-	=7-	=7-	=7-	=7-	=7-	=7-	=7-
1E	pax	1B	.	2e\	pax	2g\	-mi-
.	.	.	.	1e	ho-	2g\	-ni-
*	*Xij	*Xlig	*	*	*	*	*
*	*	*lig	*	*	*	*	*
2.C/	ho-	1c	-mi-	.	.	1g	-bus
.	.	.	.	1e\	-mi-	.	.
4D/	.	.	.	.	.	.	.
=8-	=8-	=8-	=8-	=8-	=8-	=8-	=8-
4E\	.	1B	.	.	.	2re	.
4F\	.	.	.	.	.	.	.
2G\	-mi-	.	.	2d\	.	1g	Bo-
*	*	*Xlig	*	*	*	*	*
*	*	*lig	*	*	*	*	*
1D	-ni-	1A	-ni-	2d\	-ni-	.	.
!	!	!	!	!	!	!LO:TX:a:t=P:problem:# above	!
.	.	.	.	2d\	-bus,	2f#X\	-nae
=9-	=9-	=9-	=9-	=9-	=9-	=9-	=9-
2GG/	-bus	1G	.	2B\	bo-	2g\	vo-
4C/	bo-	.	.	1cny	-nae	1e	-lun-
4D/	.	.	.	.	.	.	.
*	*	*Xlig	*	*	*	*	*
4E\	.	1G	-b(us)	.	.	.	.
4F\	.	.	.	.	.	.	.
1G\	-nae	.	.	2B\	.	2d/	-ta-
=10-	=10-	=10-	=10-	=10-	=10-	=10-	=10-
.	.	1D	Bo-	1A	vo-	2d/	-tis
*	*	*	*	*	*	*	*ij
!LO:TX:a:t=P:problem:# above	!	!	!	!	!	!	!
2F#X\	vo-	.	.	.	.	2d/	bo-
2G\	.	1G	-nae	2B\	-lun-	2B/	-nae
!LO:SIC:v:t=custos D	!	!	!	!	!	!LO:SIC:v:t=custos “d”	!
2E\	-lun-	.	.	1G/	-ta-	2c/	vo-
!LO:LB:g=original	!	!	!	!	!	!LO:LB:g=original	!
=11-	=11-	=11-	=11-	=11-	=11-	=11-	=11-
*	*	*lig	*	*	*	*	*
1D	-ta-	1A	vo-	.	.	1d	-lun-
!	!	!	!	!LO:TX:b:t=P:problem:# below	!	!	!
.	.	.	.	2F#X/	.	.	.
2GG/	-tis	1G	.	2G/	-tis	2B/	-ta-
*	*	*	*	*	*ij	*	*
2C/	Lau-	.	.	2E/	bo-	2c/	-tis
*	*	*Xlig	*	*	*	*	*Xij
=12-	=12-	=12-	=12-	=12-	=12-	=12-	=12-
*	*	*lig	*	*	*	*	*
2D/	.	1F	.	4Fny/	-nae	4A/	vo-
.	.	.	.	4G/	vo-	4B/	.
2.AA/	-da-	.	.	1A	-lun-	4c/	.
.	.	.	.	.	.	4d/	.
.	.	1E	.	.	.	2e\	-lun-
4BB/	.	.	.	.	.	.	.
2C/	-mus	.	.	2G/	-ta-	1c\	-ta-
*	*	*Xlig	*	*	*	*	*
=13-	=13-	=13-	=13-	=13-	=13-	=13-	=13-
1GG	te	1D	-lun-	0G	-tis	.	.
.	.	.	.	.	.	2B/	.
*	*	*lig	*	*	*Xij	*	*
2C/	Be-	1E	-ta-	.	.	2c/	-tis,
*	*	*	*	*	*	*lig	*
2C/	-ne-	.	.	.	.	1c\	lau-
=14-	=14-	=14-	=14-	=14-	=14-	=14-	=14-
2FF/	-di-	1F	.	1A	lau-	.	.
*	*	*	*	*	*	*col	*
2FF/	-ci-	.	.	.	.	2.fny\	.
*	*	*Xlig	*	*	*	*Xlig	*
!	!	!LO:SIC:v:t=custos A	!	!	!	!	!
1C	-m(us)	1G	-tis	2c\	-da-	.	.
!	!	!	!	!	!	!	!
.	.	.	.	.	.	8e\L	-da-
.	.	.	.	.	.	8d\J	.
*	*	*	*	*	*	*Xcol	*
.	.	.	.	2c\	-m(us)	2e\	.
!	!	!LO:PB:g=original	!	!	!	!	!
=15-	=15-	=15-	=15-	=15-	=15-	=15-	=15-
1Fny	te	1A	Lau-	2c\	te	2f\	.
*	*	*	*	*	*ij	*	*
.	.	.	.	2f\	lau-	2a\	.
*	*ij	*lig	*	*	*	*	*
2G\	be-	1B	-da-	2d\	-da-	2g\	-m(us)
2G\	-ne-	.	.	2d\	-m(us)	1g\	te
=16-	=16-	=16-	=16-	=16-	=16-	=16-	=16-
1C	-di-	1c	.	1e	te	.	.
*	*	*	*	*	*	*	*ij
.	.	.	.	.	.	2g\	lau-
*	*	*Xlig	*	*	*	*	*
1.G	-ci-	1B	.	1d	lau-	2g\	-da-
.	.	.	.	.	.	2d\	.
=17-	=17-	=17-	=17-	=17-	=17-	=17-	=17-
*	*	*lig	*	*	*	*	*
.	.	1A	.	2c\	-da-	2e\	-m(us)
!	!	!	!	!LO:TX:a:t=~	!	!	!
2F\	.	.	.	2d\	.	2f\	.
*lig	*	*	*	*	*	*	*
1E	-m(us)	1G	.	4e\	.	4g\	te
.	.	.	.	2B\	.	4e\	lau-
.	.	.	.	.	.	1g\	-da-
.	.	.	.	4c\	.	.	.
*	*	*Xlig	*	*	*	*	*
=18-	=18-	=18-	=18-	=18-	=18-	=18-	=18-
*	*	*lig	*	*	*	*	*
1D	.	1A	-mus	2.d\	.	.	.
!	!	!	!	!	!	!LO:TX:a:t=P:problem:# above	!
.	.	.	.	.	.	2f#X\	-m(us)
.	.	.	.	4c\	.	.	.
*Xlig	*	*	*	*	*	*	*
2GG/	-te	1G	.	2B\	-m(us)	2g\	te
*	*Xij	*	*	*	*	*	*Xij
!	!	!	!	!LO:SIC:v:t=custos G	!	!	!
1C/	A-	.	.	2c\	te	1e\	Be-
*	*	*Xlig	*	*	*Xij	*	*
!	!	!	!	!LO:LB:g=original	!	!	!
=19-	=19-	=19-	=19-	=19-	=19-	=19-	=19-
*	*	*lig	*	*	*	*	*
.	.	1E	te,	2.G/	be-	.	.
2C/	-do-	.	.	.	.	2c/	-ne-
.	.	.	.	4A/	-ne-	.	.
1.BB-X	-ra-	1F,	.	1.B-X	-di-	2.d\	-di-
.	.	.	.	.	.	4d\	-ci-
*	*	*Xlig	*	*	*	*	*
=20-	=20-	=20-	=20-	=20-	=20-	=20-	=20-
.	.	1D	Be-	.	.	1d	-m(us)
2BB-/	-mus	.	.	2B-\	-ci-	.	.
1GG	te	1G	-ne-	1B-	-mus	2d\	te
*	*	*	*	*	*	*	*ij
.	.	.	.	.	.	1g\	be-
=21-	=21-	=21-	=21-	=21-	=21-	=21-	=21-
*	*ij	*lig	*	*	*	*	*
1D	A-	1A	-di-	2A/	te	.	.
*	*	*	*	*	*ij	*	*
.	.	.	.	2d\	be-	2fny\	-ne-
2E\	-do-	1G	.	2Bny\	-ne-	2e\	-di-
2C/	.	.	.	2c\	-di-	2e\	-ci-
*	*	*Xlig	*	*	*	*	*
=22-	=22-	=22-	=22-	=22-	=22-	=22-	=22-
!	!	!	!	!	!	!	!
*	*	*lig	*	*	*	*	*
!LO:SIC:v:t=custos AA	!	!	!	!	!	!LO:SIC:v:t=custos A	!
1D	-ra-	1F	.	2A/	-ci-	2d\	-m(us)
!	!	!	!	!	!	!LO:LB:g=original	!
.	.	.	.	2d\	-mus	2A/	.
!LO:PB:g=original	!	!	!	!	!	!	!
2AA/	.	1E	.	2e\	te	2c/	te
*	*	*	*	*	*Xij	*	*
2C/	.	.	.	2E/	a-	4G/	be-
.	.	.	.	.	.	4A/	-ne-
*	*	*Xlig	*	*	*	*	*
=23-	=23-	=23-	=23-	=23-	=23-	=23-	=23-
1GG	-mus	1D	-ci-	2G/	-do-	4B/	-di-
.	.	.	.	.	.	2c/	-ci-
.	.	.	.	2G/	-ra-	.	.
.	.	.	.	.	.	4B/	-m(us)
*	*	*lig	*	*	*	*	*
2C/	te	1E	-mus	1G	-mus	2c/	te
*	*Xij	*	*	*	*	*	*Xij
1E\	a-	.	.	.	.	1g\	a-
=24-	=24-	=24-	=24-	=24-	=24-	=24-	=24-
.	.	1F	.	1A	te	.	.
1D	-do-	.	.	.	.	1f	-do-
*	*	*Xlig	*	*	*ij	*	*
.	.	1G,	te,	2B\	a-	.	.
2C/	-ra-	.	.	2c\	-do-	2e\	-ra-
=25-	=25-	=25-	=25-	=25-	=25-	=25-	=25-
1BBny	-mus	1B	A-	1d	-ra-	1g	-m(us)
2AA/	te	1E	-do-	2c\	-mus	2a\	.
*	*ij	*	*	*	*	*	*
!	!	!	!	!	!	!LO:TX:b:t=P:problem:# below	!
1E\	a-	.	.	2B\	te	1g#X\	te
*	*	*	*	*	*Xij	*	*
=26-	=26-	=26-	=26-	=26-	=26-	=26-	=26-
*	*	*lig	*	*	*	*	*ij
.	.	1B	-ra-	2r	.	.	.
2E\	-do-	.	.	2E/	a-	2gny\	a-
4AA/	-ra-	1c	.	2E/	-do-	2.a\	-do-
4BB/	.	.	.	.	.	.	.
4C/	.	.	.	4E/	-ra-	.	.
4D/	.	.	.	4F/	.	8g\L	.
.	.	.	.	.	.	8f\J	.
*	*	*Xlig	*	*	*	*	*
=27-	=27-	=27-	=27-	=27-	=27-	=27-	=27-
*	*	*lig	*	*	*	*	*
4E\	.	1B	.	4G/	.	2e\	-ra-
4F\	.	.	.	4A/	.	.	.
1G	.	.	.	4B\	.	2d\	-m(us)-
.	.	.	.	4c\	.	.	.
.	.	1A	.	4d\	.	1d	-te
.	.	.	.	4A/	.	.	.
2F\	.	.	.	1d\	.	.	.
*	*	*Xlig	*	*	*	*	*
=28-	=28-	=28-	=28-	=28-	=28-	=28-	=28-
1E	-mus	1G	.	.	.	2r	.
.	.	.	.	2c\	-mus	1g	a-
*	*	*lig	*	*	*	*	*
1D	te	1A	-mus	1d	te	.	.
.	.	.	.	.	.	2f\	-do-
=29-	=29-	=29-	=29-	=29-	=29-	=29-	=29-
*	*	*	*	*	*ij	*	*
2r	.	1G	.	2B\	a-	2d\	-ra-
2C/	a-	.	.	2c\	-do-	2e\	-m(us)
*	*	*Xlig	*	*	*	*	*
!	!	!	!	!LO:SIC:v:t=custos c	!	!	!
2C/	-do-	1E	te.	1G	-ra-	2c/	te
*	*	*	*	*	*	*	*Xij
2BB/	-ra-	.	.	.	.	2g\	glo-
!	!	!	!	!LO:LB:g=original	!	!	!
=30-	=30-	=30-	=30-	=30-	=30-	=30-	=30-
*	*	*lig	*	*	*	*lig	*
1AA	-mus	1F	.	1c	-mus	1a	.
!	!	!LO:SIC:v:t=custos G	!	!	!	!	!
2GG/	te	1G	.	1B	te	1d	.
*	*Xij	*	*	*	*	*	*
2GG/	glo-	.	.	.	.	.	.
*	*	*Xlig	*	*	*Xij	*Xlig	*
!	!	!LO:LB:g=original	!	!	!	!	!
=31-	=31-	=31-	=31-	=31-	=31-	=31-	=31-
2C/	-ri-	1G	Glo-	2c\	glo-	4e\	-ri-
.	.	.	.	.	.	4f\	-fi-
2GG/	-fi-	.	.	2B\	-ri-	2.g\	-ca-
2C/	-ca-	1A	-ri-	2e\	-fi-	.	.
.	.	.	.	.	.	8f\L	.
.	.	.	.	.	.	8e\J	.
!LO:SIC:v:t=custos GG	!	!	!	!	!	!	!
2D/	-mus	.	.	2d\	-ca-	2f\	-m(us)
!LO:LB:g=original	!	!	!	!	!	!	!
=32-	=32-	=32-	=32-	=32-	=32-	=32-	=32-
2GG/	te	1G	-fi-	2B\	-mus	2g\	te
*	*ij	*	*	*	*	*	*ij
1C	glo-	.	.	2c\	te	1e	glo-
*	*	*lig	*	*	*ij	*	*
.	.	1A	-ca-	2e\	glo-	.	.
1D\	-ri-	.	.	1d\	-ri-	1f\	.
=33-	=33-	=33-	=33-	=33-	=33-	=33-	=33-
.	.	1B	.	.	.	.	.
1E	-fi-	.	.	2G/	-fi-	1g	.
*	*	*Xlig	*	*	*	*	*
*	*	*lig	*	*	*	*	*
.	.	1c	-mus	2c\	-ca-	.	.
!	!	!	!	!	!	!LO:SIC:v:t=custos A	!
2F\	-ca-	.	.	2A\	-mus	2a\	-ri-
=34-	=34-	=34-	=34-	=34-	=34-	=34-	=34-
1G	.	1B	.	2d\	te	2a\	-fi-
.	.	.	.	2d\	glo-	1g	-ca-
*	*	*Xlig	*	*	*	*	*
*	*	*lig	*	*	*	*	*
1D	-mus	1A	.	4d\	-ri-	.	.
.	.	.	.	4d\	-fi-	.	.
!	!	!	!	!	!	!LO:TX:a:t=P:problem:# above	!
.	.	.	.	2d\	-ca-	2f#X\	.
=35-	=35-	=35-	=35-	=35-	=35-	=35-	=35-
!LO:TX:t=P:problem:kreska pseudotaktowa	!	!	!	!	!	!	!
0GG;	te	1G	.	2B\	-mus	1g	-m(us)
*	*Xij	*	*	*	*	*	*
!	!	!	!	!LO:N:vis=1	!	!	!
.	.	.	.	1.B;	te	.	.
*	*	*Xlig	*	*	*Xij	*	*
!	!	!LO:TX:t=P:problem:kreska pseudotaktowa	!	!	!	!	!
.	.	1G;	te.	.	.	1g;<	te
*	*	*	*	*	*	*	*Xij
.	.	.	.	.	.	.	.
=36-	=36-	=36-	=36-	=36-	=36-	=36-	=36-
1G	Gra-	1B	Gra-	1d	Gra-	1g	Gra-
2F\	-ti-	1c	-ti-	4A/	-ti-	2a\	-ti-
.	.	.	.	4c\	.	.	.
!	!	!	!	!LO:TX:a:t=g	!	!	!
2E\	.	.	.	2G/	-as	2g\	.
=37-	=37-	=37-	=37-	=37-	=37-	=37-	=37-
1D	-as	1d	-as	2A/	a-	2.fny\	-as
.	.	.	.	1d	-gi-	.	.
.	.	.	.	.	.	4g\	.
*	*	*lig	*	*	*	*	*
1A	a-	1e	a-	.	.	2a\	a-
.	.	.	.	2c\	-mus	2a\	-gi-
=38-	=38-	=38-	=38-	=38-	=38-	=38-	=38-
2D/	-gi-	1d	.	2d\	ti-	2f\	-mus
4D/	-mus	.	.	1f	-bi	2a\	.
4E\	.	.	.	.	.	.	.
*	*	*Xlig	*	*	*	*	*
*	*	*lig	*	*	*	*	*
4F\	ti-	1c	-gi-	.	.	2a\	ti-
4G\	.	.	.	.	.	.	.
2A\	.	.	.	2e\	a-	1a\	-bi
=39-	=39-	=39-	=39-	=39-	=39-	=39-	=39-
1E	.	1B	.	1e	-gi-	.	.
!	!	!	!	!	!	!LO:TX:b:t=P:problem:# below	!
.	.	.	.	.	.	2g#X\	.
*	*	*Xlig	*	*	*	*	*
*	*	*lig	*	*	*	*	*
2AA/	-bi	1A	-mus	2.c\	-m(us)	2a\	.
2F\	p(rop-	.	.	.	.	1a\	p(ro)p-
.	.	.	.	4d\	ti-	.	.
=40-	=40-	=40-	=40-	=40-	=40-	=40-	=40-
1E	-ter)	1B	.	2e\	-bi	.	.
.	.	.	.	2e\	p(rop-	2gny\	-(te)r
*lig	*	*Xlig	*	*	*	*	*
1D	ma-	1d	ti-	2A/	-ter)	1f	ma-
!	!	!	!	!LO:SIC:v:t=custos c	!	!	!
.	.	.	.	2B\	ma-	.	.
!	!	!	!	!LO:LB:g=original	!	!	!
=41-	=41-	=41-	=41-	=41-	=41-	=41-	=41-
1C	.	1G	-bi	1.c	-gnam	1e	.
*Xlig	*	*	*	*	*	*	*
1G	-gn(am)	1B	prop-	.	.	1d	-gnam
.	.	.	.	2r	.	.	.
=42-	=42-	=42-	=42-	=42-	=42-	=42-	=42-
*	*ij	*	*	*	*ij	*	*
2r	.	1E	-(ter)	1G	p(rop-	2B/	glo-
1C	p(rop-	.	.	.	.	2c/	-ri-
*	*	*lig	*	*	*	*	*
.	.	1D	ma-	2F#X/	-pter)	2A/	-am
2BB/	.	.	.	2G/	.	2B/	.
=43-	=43-	=43-	=43-	=43-	=43-	=43-	=43-
*lig	*	*	*	*	*	*	*
1AA	-ter)	1E	.	1A	ma-	1c	tu-
*	*	*Xlig	*	*	*Xij	*	*
1GG	.	1G	-gna(m)	2D/	-gnam	1B	-(am)
.	.	.	.	1G/	glo-	.	.
*Xlig	*	*	*	*	*	*	*
=44-	=44-	=44-	=44-	=44-	=44-	=44-	=44-
!LO:SIC:v:t=custos GG	!	!	!	!	!	!	!
*	*	*lig	*	*	*	*	*
1D	ma-	1A	glo-	.	.	2.d\	glo-
.	.	.	.	2F#X/	-ri	.	.
.	.	.	.	.	.	4c/	.
1GG	-gnam	1G	.	2G/	-am	2B/	-ri-
*	*Xij	*	*	*	*ij	*	*
.	.	.	.	1d\	glo-	2B/	-am
*	*	*Xlig	*	*	*	*	*
=45-	=45-	=45-	=45-	=45-	=45-	=45-	=45-
*	*	*lig	*	*	*	*	*ij
1D	glo-	1F	-ri-	.	.	2A/	glo-
.	.	.	.	2A/	.	1a	.
2AA/	-ri-	1E	.	2c\	-ri-	.	.
2C/	-am	.	.	4G/	-am	4e\	-ri-
*	*	*	*	*	*Xij	*	*
!	!	!	!	!	!	!LO:SIC:v:t=custos g	!
.	.	.	.	4A/	.	4f\	.
!	!	!	!	!	!	!	!
*	*	*Xlig	*	*	*	*	*
!	!	!	!	!	!	!LO:LB:g=original	!
=46-	=46-	=46-	=46-	=46-	=46-	=46-	=46-
!	!	!LO:SIC:v:t=custos E	!	!	!	!	!
1GG	tu-	1D	-am	4B\	tu-	2g\	-am
*	*	*	*	*	*	*	*Xij
.	.	.	.	2c\	.	.	.
.	.	.	.	.	.	2g\	tu-
.	.	.	.	4B\	.	.	.
!	!	!LO:LB:g=original	!	!	!	!	!
1C	.	1E	tu-	0c;	am.	0g;;	-am.
=47-	=47-	=47-	=47-	=47-	=47-	=47-	=47-
!LO:TX:t=P:problem:kreska pseudotaktowa	!	!LO:TX:t=P:problem:kreska pseudotaktowa	!	!	!	!	!
1C;	-am	1E	-am.	.	.	.	.
2r	.	1G	Do-	2.B\	Do-	1.d	Do-
1G\	Do-	.	.	.	.	.	.
.	.	.	.	8A/L	.	.	.
.	.	.	.	8G/J	.	.	.
=48-	=48-	=48-	=48-	=48-	=48-	=48-	=48-
.	.	1D	-mi-	2A/	-mi-	.	.
2F\	-mi-	.	.	2A/	-ne	2d\	-mi-
1E	-ne	1G	-ne	1B	De-	2e\	.
.	.	.	.	.	.	2.e\	-ne
=49-	=49-	=49-	=49-	=49-	=49-	=49-	=49-
*lig	*	*	*	*	*	*	*
1C	De-	1G	De-	1c	.	.	.
.	.	.	.	.	.	4f\	De-
.	.	.	.	.	.	4g\	.
.	.	.	.	.	.	4e\	.
*	*	*lig	*	*	*	*	*
1D	.	1F	-us	1A	-us	4f\	.
.	.	.	.	.	.	4e\	.
.	.	.	.	.	.	1d\	.
*Xlig	*	*	*	*	*	*	*
=50-	=50-	=50-	=50-	=50-	=50-	=50-	=50-
1AA	-us	1E	.	1A	Rex	.	.
!	!	!	!	!	!	!LO:TX:b:t=P:problem:# below	!
.	.	.	.	.	.	2c#X/	.
*	*	*Xlig	*	*	*	*	*
1BB-X	Rex	1D	Rex	1Fny	cae-	2d\	-us
.	.	.	.	.	.	1d\	Rex
=51-	=51-	=51-	=51-	=51-	=51-	=51-	=51-
1GG	cae-	1G	cae-	1B-X	-leſ-	.	.
.	.	.	.	.	.	2d\	cae-
*	*	*lig	*	*	*	*	*
1D	-leſ-	1F	-leſ-	1A	-tis	1d	-les-
=52-	=52-	=52-	=52-	=52-	=52-	=52-	=52-
2GG/	-tis	1G	.	2r	.	2d\	-tis
1C	De-	.	.	1c	De-	1e	De-
*	*	*Xlig	*	*	*	*	*
.	.	1G,	-tis	.	.	.	.
2E\	-us	.	.	2G/	-us	2cny/	-(us)
=53-	=53-	=53-	=53-	=53-	=53-	=53-	=53-
!	!	!	!	!LO:SIC:v:t=custos G	!	!	!
1D	Pa-	1A	De-	1d	Pa-	1f	Pa-
!	!	!	!	!LO:LB:g=original	!	!	!
2C/	-ter	1c	-us	1G	-ter	2e\	.
1C/	om-	.	.	.	.	1e\	-ter
=54-	=54-	=54-	=54-	=54-	=54-	=54-	=54-
.	.	1G	Pa-	2c\	om-	.	.
2C/	-ni-	.	.	2c\	-ni-	2e\	om-
*	*	*lig	*	*	*	*	*
1D	-p(o-	1F	-ter	1A	-po-	4f\	-ni-
.	.	.	.	.	.	4e\	.
.	.	.	.	.	.	1d\	-po-
=55-	=55-	=55-	=55-	=55-	=55-	=55-	=55-
1AA	-te)ns	1E,	.	1A	-tens	.	.
!	!	!	!	!	!	!LO:TX:a:t=P:problem:# above	!
.	.	.	.	.	.	2c#X/	.
*	*	*Xlig	*	*	*	*	*
*	*	*lig	*	*	*ij	*	*
2r	.	1D	o-	2.A/	De-	2d\	-tens
*	*	*	*	*	*	*	*ij
2D/	om-	.	.	.	.	2f\	Pa-
.	.	.	.	4Bny\	-us	.	.
=56-	=56-	=56-	=56-	=56-	=56-	=56-	=56-
2AA/	-ni-	1E	.	1c	Pa-	2e\	.
!LO:SIC:v:t=custos GG	!	!	!	!	!	!	!
2C/	-po-	.	.	.	.	2e\	-ter
*	*	*Xlig	*	*	*	*	*
!LO:LB:g=original	!	!	!	!	!	!	!
1GG	-tens	(>1G	-mni-	1B	-ter	2d\	.
.	.	.	.	.	.	1d\	om-
=57-	=57-	=57-	=57-	=57-	=57-	=57-	=57-
*	*ij	*	*	*	*	*	*
2D/	om-	1F)	.	2r	.	.	.
2D/	-ni-	.	.	1A	om-	2A/	-ni-
!	!	!	!	!	!	!LO:SIC:v:t=custos G	!
2AA/	-p(o-	1E	-po-	.	.	2cny/	-po-
!	!	!	!	!	!	!LO:LB:g=original	!
2C/	.	.	.	4E/	-mni-	4G/	.
.	.	.	.	4F/	.	4A/	.
=58-	=58-	=58-	=58-	=58-	=58-	=58-	=58-
1GG	.	1D	.	1G	-po-	4B/	.
.	.	.	.	.	.	2c/	.
.	.	.	.	.	.	4B/	.
!LO:TX:t=P:problem:kreska pseudotaktowa	!	!LO:TX:t=P:problem:kreska pseudotaktowa	!	!	!	!	!
1C;	-te)ns	1E;	-tens.	1G;	-tens.	1c	-tens
*	*Xij	*	*	*	*Xij	*	*Xij
=59-	=59-	=59-	=59-	=59-	=59-	=59-	=59-
1G	Do-	1G	Do-	2.B\	Do-	2re	.
.	.	.	.	.	.	1g	Do-
.	.	.	.	4c\	.	.	.
2A\	-mi-	1D	-mi-	2d\	-mi-	.	.
2A\	-ne	.	.	4d\	-ne	2f\	-mi-
.	.	.	.	4c\	.	.	.
=60-	=60-	=60-	=60-	=60-	=60-	=60-	=60-
4G\	Fi-	1G	-ne	4B\	Fi-	2g\	-ne
4F\	.	.	.	4A/	.	.	.
4E\	.	.	.	2B\	.	4g\	.
4D/	.	.	.	.	.	4f\	.
4C/	.	1G	Fi-	1c	.	4e\	Fi-
4D/	.	.	.	.	.	4f\	.
4E\	.	.	.	.	.	4g\	.
4C/	.	.	.	.	.	4e\	.
=61-	=61-	=61-	=61-	=61-	=61-	=61-	=61-
!	!	!LO:SIC:v:t=custos A	!	!	!	!	!
1D	.	1F	-li	2A/	-li	1f	-li
.	.	.	.	2A/	V-	.	.
!	!	!LO:LB:g=original	!	!	!	!	!
2AA/	-li	1A	V-	2c\	-ni-	1e	.
1A\	V-	.	.	2c\	-ge-	.	.
=62-	=62-	=62-	=62-	=62-	=62-	=62-	=62-
.	.	1B	-ni-	2B\	-ni-	1e	V-
!LO:TX:b:t=P:problem:# below	!	!	!	!	!	!	!
2G#X\	-ni-	.	.	2E/	-te	.	.
*	*	*lig	*	*	*	*	*
2A\	-ge-	1c	-ge-	2r	.	2e\	-ni-
2A\	-ni-	.	.	1e\	Je-	1a\	-ge-
=63-	=63-	=63-	=63-	=63-	=63-	=63-	=63-
1.E	-te	1B	.	.	.	.	.
!	!	!	!	!	!	!LO:TX:b:t=P:problem:# below	!
.	.	.	.	2e\	ſu	2g#X\	-ni-
.	.	1A	-ni-	0c	Chri-	2a\	-te
*lig	*	*	*	*	*	*	*
1F\	Je-	.	.	.	.	1f\	Je-
=64-	=64-	=64-	=64-	=64-	=64-	=64-	=64-
.	.	1G	.	.	.	.	.
1C	.	.	.	.	.	4e\	.
.	.	.	.	.	.	4d\	.
*Xlig	*	*Xlig	*	*	*	*	*
.	.	1G	-té	1c	-ſte	2e\	-ſu
1C/	-ſu	.	.	.	.	2e\	Chri-
=65-	=65-	=65-	=65-	=65-	=65-	=65-	=65-
.	.	1F	Je-	1A	.	0f	.
0D	Chri-	.	.	.	.	.	.
*	*	*	*	*	*ij	*	*
!	!	!	!	!LO:SIC:v:t=custos d	!	!	!
.	.	1A	-ſu	2d\	Je-	.	.
!	!	!	!	!LO:LB:g=original	!	!	!
.	.	.	.	2.d\	.	.	.
=66-	=66-	=66-	=66-	=66-	=66-	=66-	=66-
*	*	*lig	*	*	*	*	*
.	.	1A	Chri-	.	.	1e	-ſte
.	.	.	.	8c\L	.	.	.
.	.	.	.	8B\J	.	.	.
!LO:SIC:v:t=custos C	!	!	!	!	!	!	!
1AA	-ſte	.	.	2c\	-ſu	.	.
.	.	1D	.	2d\	Chriſ-	2re	.
!LO:LB:g=original	!	!	!	!	!	!	!
*	*	*	*	*	*	*	*ij
2r	.	.	.	2A/	-te	1f\	Je-
*	*	*Xlig	*	*	*Xij	*	*
=67-	=67-	=67-	=67-	=67-	=67-	=67-	=67-
1C	Je-	1G	.	2c\	Je-	.	.
.	.	.	.	2c\	-ſu	2e\	.
*	*	*lig	*	*	*	*	*
2.FF/	.	1F	.	2c\	C(hriſ-	2.f\	-ſu
.	.	.	.	1A\	.	.	.
4GG/	.	.	.	.	.	8e\L	.
.	.	.	.	.	.	8d\J	.
=68-	=68-	=68-	=68-	=68-	=68-	=68-	=68-
4AA/	.	1E	.	.	.	4c\	.
4BBny/	.	.	.	.	.	4d\	.
1C	.	.	.	2G/	-t)e	2e\	Chri-
*	*	*Xlig	*	*	*	*	*
*	*	*lig	*	*	*ij	*	*
.	.	1D	.	2A/	Je-	2f\	.
2BB/	-su	.	.	2B\	-ſu	2gny\	.
=69-	=69-	=69-	=69-	=69-	=69-	=69-	=69-
0AA	Ch(ri-	1E	.	2.c\	C(hriſ-	0a	.
.	.	.	.	4B\	.	.	.
*	*	*Xlig	*	*	*	*	*
.	.	1F	.	2A/	.	.	.
.	.	.	.	2c\	.	.	.
=70-	=70-	=70-	=70-	=70-	=70-	=70-	=70-
!	!	!	!	!	!	!LO:SIC:v:t=custos g	!
!	!	!	!	!	!	!LO:TX:b:t=D(omi)ne De(us)	!
1GG;	-ſt)e.	1G,	-ſte,	1B;<	-t)e	1d;<	-ste
*	*	*	*	*	*Xij	*	*Xij
!	!	!	!	!	!	!LO:PB:g=original	!
1Gny	Do-	1d	Do-	2.B\	Do-	1g	Do-
.	.	.	.	4B\	-mi-	.	.
=71-	=71-	=71-	=71-	=71-	=71-	=71-	=71-
2F\	-mi-	1c	.	1A	-ne	2a\	-mi-
2A\	-ne	.	.	.	.	2f\	-ne
1G	De-	1B	-mi-	1d	De-	2.g\	De-
.	.	.	.	.	.	4f\	.
=72-	=72-	=72-	=72-	=72-	=72-	=72-	=72-
1C	.	1c	-ne	1e	-us	4e\	.
.	.	.	.	.	.	4f\	.
.	.	.	.	.	.	1g	.
*	*	*lig	*	*	*	*	*
1D	.	1A	De-	2.d\	a-	.	.
!	!	!	!	!	!	!LO:TX:a:t=P:problem:# above	!
.	.	.	.	.	.	2f#X\	.
.	.	.	.	4c\	.	.	.
=73-	=73-	=73-	=73-	=73-	=73-	=73-	=73-
2GG/	-us	1G	.	1B	-gn(us)	2g\	-us
1G	A-	.	.	.	.	2g\	ag-
*	*	*Xlig	*	*	*	*	*
.	.	1A,	-us	2.c\	De-	2e\	-n(us)
2F\	-gnus	.	.	.	.	2.a\	De-
.	.	.	.	4d\	.	.	.
=74-	=74-	=74-	=74-	=74-	=74-	=74-	=74-
*	*	*	*	*lig	*	*	*
1E	De-	1B	A-	1e	-i	.	.
.	.	.	.	.	.	4g\	.
.	.	.	.	.	.	1g	.
1D	-i	1d	.	1A	.	.	.
!	!	!	!	!	!	!LO:TX:a:t=P:problem:# above	!
.	.	.	.	.	.	2f#X\	.
*	*	*	*	*Xlig	*	*	*
=75-	=75-	=75-	=75-	=75-	=75-	=75-	=75-
*	*	*lig	*	*	*	*	*
4C/	A-	1e	-gnus	2c\	a-	1g	-i
4D/	.	.	.	.	.	.	.
4E\	.	.	.	4G/	.	.	.
4F\	.	.	.	4A/	.	.	.
*	*	*	*	*	*	*	*ij
4G\	.	1d	.	4B/	.	1g	a-
4A\	.	.	.	4c\	.	.	.
4B\	.	.	.	4d\	.	.	.
4G\	.	.	.	4B\	.	.	.
*	*	*Xlig	*	*	*	*	*
=76-	=76-	=76-	=76-	=76-	=76-	=76-	=76-
4A\	.	1c	De-	4c\	.	2fny\	.
4B\	.	.	.	4d\	.	.	.
2c\	-gn(us)	.	.	4e\	.	2e\	-gn(us)
!	!	!	!	!LO:SIC:v:t=custos d	!	!	!
.	.	.	.	4c\	-gnus	.	.
!LO:SIC:v:t=custos C	!	!	!LO:PB:g=original	!	!	!	!
*	*	*lig	*	*	*	*	*
1G	De-	1B	.	2d\	De-	1d	De-
.	.	.	.	2G/	-i	.	.
!LO:LB:g=original	!	!	!	!	!	!	!
=77-	=77-	=77-	=77-	=77-	=77-	=77-	=77-
1C	-i	1c	.	2r	.	1e	-i
.	.	.	.	1c	Fi-	.	.
*	*	*Xlig	*	*	*	*	*Xij
!	!	!LO:SIC:v:t=custos d	!	!	!	!	!
1.G	Fi-	1d	-i	.	.	1r	.
.	.	.	.	4B\	-li-	.	.
.	.	.	.	4A\	.	.	.
!	!	!LO:LB:g=original	!	!	!	!	!
=78-	=78-	=78-	=78-	=78-	=78-	=78-	=78-
.	.	1d	Fi-	2B\	.	1.g	fi-
2G\	-li-	.	.	2B\	.	.	.
2.E\	-(us)	1G	-li-	1B	-us	.	.
.	.	.	.	.	.	2g\	-li-
4D/	.	.	.	.	.	.	.
=79-	=79-	=79-	=79-	=79-	=79-	=79-	=79-
*lig	*	*	*	*	*	*	*
1C	Pa-	1G	-us	2.c\	Pa-	1e	-us
.	.	.	.	4B\	.	.	.
*	*	*lig	*	*	*	*	*
1D	.	1F	Pa-	1A	.	1d	Pa-
*Xlig	*	*	*	*	*	*	*
=80-	=80-	=80-	=80-	=80-	=80-	=80-	=80-
2GG/	-tris	1G	.	2B/	-tris	2d\	-tris
*	*ij	*	*	*	*ij	*	*ij
1GG	Fi-	.	.	1B	fi-	1d	fi-
*	*	*Xlig	*	*	*	*	*
!	!	!LO:TX:t=P:problem:podwójna kreska pseudotaktowa	!	!	!	!	!
.	.	1G	-tris.	.	.	.	.
1C/	-li-	.	.	1c\	-li-	1e\	li-
=81-	=81-	=81-	=81-	=81-	=81-	=81-	=81-
.	.	1G	Qui	.	.	.	.
2E\	-(us)	.	.	2G/	-us	2c/	-us
0D	Pa-	1F	.	2.A/	Pa-	2.d\	Pa-
.	.	.	.	8B\L	.	4e\	.
.	.	.	.	8c\J	.	.	.
=82-	=82-	=82-	=82-	=82-	=82-	=82-	=82-
.	.	1A	tol-	1d	.	4f\	.
.	.	.	.	.	.	2g\	.
!	!	!	!	!	!	!LO:SIC:v:t=custos “g”	!
!	!	!	!	!	!	!LO:TX:a:t=P:problem:# above	!
.	.	.	.	.	.	4f#X\	.
!	!	!	!	!	!	!LO:LB:g=original	!
2GG/	-tris	1G	-lis	2B\	-tris	2g\	-tris
*	*Xij	*	*	*	*Xij	*	*Xij
2C/	Qui	.	.	2c\	Qui	2e\	Qui
=83-	=83-	=83-	=83-	=83-	=83-	=83-	=83-
*	*	*lig	*	*	*	*	*
2C/	tol-	1G	pec-	2c\	tol-	2e\	tol-
2C/	-lis	.	.	2c\	-lis	2e\	-lis
1D	pec-	1F	.	1A	pec-	1d	pec-
*	*	*Xlig	*	*	*	*	*
=84-	=84-	=84-	=84-	=84-	=84-	=84-	=84-
!	!	!	!	!	!	!LO:TX:a:t=P:problem:# above	!
2AA/	-ca-	1E	-ca-	1A	-ca-	1c#X	.
2AA/	-ta	.	.	.	.	.	.
1BB-X	mun-	1D	-ta	2F/	-ta	2d\	-ca-
.	.	.	.	2G/	mun-	1d\	-ta
=85-	=85-	=85-	=85-	=85-	=85-	=85-	=85-
0AA	-di	1E	mun-	0A	-di	.	.
!	!	!	!	!	!	!LO:SIC:v:s=4c#	!
.	.	.	.	.	.	4cny/	mun-
.	.	.	.	.	.	4B/	.
!	!	!	!	!	!	!LO:TX:a:t=P:problem:# above	!
.	.	1E,	-di	.	.	1c#X	-di
=86-	=86-	=86-	=86-	=86-	=86-	=86-	=86-
2r	.	1D	mi-	2.A/	mi-	2d\	mi-
2D/	mi-	.	.	.	.	1fny	-ſe-
.	.	.	.	4B\	-ſe-	.	.
1C	-ſe-	1G	-ſe-	1.c	-re-	.	.
.	.	.	.	.	.	2e\	.
=87-	=87-	=87-	=87-	=87-	=87-	=87-	=87-
2C/	-re-	1G	-re-	.	.	2e\	-re
!	!	!	!	!LO:SIC:v:t=custos A	!	!	!
2GG/	-re	.	.	2B\	-re	2d\	-re
!	!	!	!	!LO:LB:g=original	!	!	!
1D	no-	1F	-re	1A	no-	1d	no-
=88-	=88-	=88-	=88-	=88-	=88-	=88-	=88-
1GG	.	1G	no-	0B;;	-bis	0d;<	-bis
!LO:SIC:v:t=custos E	!	!	!	!	!	!	!
1GG;	-bis.	1G,	-bis.	.	.	.	.
!LO:PB:g=original	!	!	!	!	!	!	!
=89-	=89-	=89-	=89-	=89-	=89-	=89-	=89-
0r	.	1B	Qui	2r	.	1rc	.
.	.	.	.	2e\	Qui	.	.
.	.	1E	tol-	1B	tol-	2rB	.
!	!	!	!	!	!	!LO:TX:b:t=P:problem:# below	!
.	.	.	.	.	.	2g#X\	Qui
=90-	=90-	=90-	=90-	=90-	=90-	=90-	=90-
!	!	!	!	!	!	!LO:TX:b:t=P:problem:# below	!
1E	Qui	1B	-lis	2e\	-lis	2g#X\	tol-
!	!	!	!	!	!	!LO:TX:b:t=P:problem:# below	!
.	.	.	.	2e\	pec-	2g#X\	-lis
*	*	*lig	*	*	*	*	*
1AA	tol-	1c	pec-	1e	-ca-	2a\	pec-
.	.	.	.	.	.	1a\	-ca-
=91-	=91-	=91-	=91-	=91-	=91-	=91-	=91-
1E	-lis	1B	.	2.e\	-ta	.	.
!	!	!	!	!	!	!LO:TX:b:t=P:problem:# below	!
.	.	.	.	.	.	2g#X\	-ta
.	.	.	.	8d\L	.	.	.
.	.	.	.	8c\J	.	.	.
*	*	*Xlig	*	*	*	*	*
1F	pec-	1A	-ca-	2d\	mun-	2a\	mun-
.	.	.	.	1e\	-di	2a\	-di
=92-	=92-	=92-	=92-	=92-	=92-	=92-	=92-
!	!	!LO:SIC:v:t=custos B	!	!	!	!	!
2E\	-ca-	1G	-ta	.	.	2rf	.
*	*	*	*	*	*	*	*ij
2C/	-ta	.	.	1r	.	2e\	qui
!	!	!LO:LB:g=original	!	!	!	!	!
*lig	*	*lig	*	*	*	*	*
1G	mun-	1B	mun-	.	.	2d\	tol-
.	.	.	.	2r	.	2.e\	-lis
=93-	=93-	=93-	=93-	=93-	=93-	=93-	=93-
1F	.	1A	.	1A	ſuſ-	.	.
.	.	.	.	.	.	8d\	pec-
!	!	!	!	!	!	!LO:SIC:v:t=custos d	!
.	.	.	.	.	.	8cny\	.
!	!	!	!	!	!	!LO:LB:g=original	!
.	.	.	.	.	.	2d\	-ca-
!	!	!	!	!	!	!	!
*Xlig	*	*Xlig	*	*	*	*	*
1E	-di	1B,	-di	2G#X/	-ci-	2e\	-ta
.	.	.	.	1G#X/	-pe	2B/	mun-
=94-	=94-	=94-	=94-	=94-	=94-	=94-	=94-
1r	.	1E	ſuſ-	.	.	1B	-di
*	*	*	*	*	*	*	*Xij
.	.	.	.	1rA	.	.	.
2r	.	1E	-ci-	.	.	2r	.
*	*	*	*	*	*ij	*	*
1E\	ſuſ-	.	.	1e\	ſuſ-	1gny\	ſuſ-
=95-	=95-	=95-	=95-	=95-	=95-	=95-	=95-
.	.	1B	-pe	.	.	.	.
!	!	!	!	!	!	!LO:TX:b:t=P:problem:# below	!
2E\	-ci-	.	.	2e\	-ci-	2g#X\	-ci-
2AA/	-pe	1c	de-	1e	-pe	1a	-pe
*	*ij	*	*	*	*	*	*
1AA/	ſuſ-	.	.	.	.	.	.
=96-	=96-	=96-	=96-	=96-	=96-	=96-	=96-
*	*	*	*	*	*	*	*ij
.	.	1A	-pre-	1c	ſuſ-	2.e\	ſuſ-
2AA/	-ci-	.	.	.	.	.	.
.	.	.	.	.	.	4e\	-ci-
1C	-pe	1G	-ca-	2c\	-ci-	1e	-pe
*	*Xij	*	*	*	*	*	*Xij
.	.	.	.	2c\	-pe	.	.
*	*	*	*	*	*Xij	*	*
=97-	=97-	=97-	=97-	=97-	=97-	=97-	=97-
2D/	de-	1F	-ti-	2A/	de-	2f\	de-
2D/	-pre-	.	.	2A/	-pre-	2d\	-pre-
2.AA/	-ca-	1A	-o-	2.e\	-ca-	2.c/	-ca-
4BBny/	-ti-	.	.	4d\	-ti-	4d\	-ti-
=98-	=98-	=98-	=98-	=98-	=98-	=98-	=98-
2C/	-o-	1A	-nem	2c\	-o-	2e\	-o-
2D/	-n(em)	.	.	2A/	-ne(m)	2d\	-nem
1GG	noſ-	1G	noſ-	1B	noſ-	1d	noſ-
=99-	=99-	=99-	=99-	=99-	=99-	=99-	=99-
!	!	!LO:TX:t=P:problem:kreska pseudotaktowa	!	!LO:SIC:v:t=custos A	!	!	!
1C;	-tra(m)	1G	-tra(m).	1c;<	-tram	1e;<	-tra(m).
!	!	!	!	!LO:LB:g=original	!	!	!
*	*	*lig	*	*	*	*	*
1AA	Qui	1E	Qui	0A	qui	1c	Qui
=100-	=100-	=100-	=100-	=100-	=100-	=100-	=100-
1D	ſe-	1F	.	.	.	1d	ſe-
*	*	*Xlig	*	*	*	*	*
*	*	*lig	*	*	*	*	*
2AA/	-des	1E	.	2c\	ſe-	2e\	-des
*	*ij	*	*	*	*	*	*ij
2C/	qui	.	.	2Gny/	-des	2.c\	qui
=101-	=101-	=101-	=101-	=101-	=101-	=101-	=101-
*	*	*	*	*	*ij	*	*
0GG	ſe-	1D	.	1G	qui	.	.
.	.	.	.	.	.	8B/L	.
.	.	.	.	.	.	8A/J	.
.	.	.	.	.	.	4B/	.
.	.	.	.	.	.	4c/	.
*	*	*Xlig	*	*	*	*	*
.	.	1B	.	1G	ſe-	1d	ſe-
=102-	=102-	=102-	=102-	=102-	=102-	=102-	=102-
!LO:SIC:v:t=custos C	!	!	!	!	!	!	!
*	*	*lig	*	*	*	*	*
2C/	-des	1c	ſe-	2G/	-des	1e	-des
*	*Xij	*	*	*	*	*	*Xij
!LO:LB:g=original	!	!	!	!	!	!	!
4C/	qui	.	.	4E/	qui	.	.
4D/	.	.	.	4F/	.	.	.
4E\	.	1B	.	4G/	.	1e	ad
4F\	.	.	.	4A/	.	.	.
4G\	.	.	.	4B/	.	.	.
4E\	.	.	.	4G/	.	.	.
*	*	*Xlig	*	*	*	*	*
=103-	=103-	=103-	=103-	=103-	=103-	=103-	=103-
1F	ſe-	1A	.	2.A/	ſe-	2.c/	dex-
.	.	.	.	4B\	.	4d\	.
*	*	*lig	*	*	*	*	*
2C/	-des	1G	-des	1c	-des	4e\	.
*	*	*	*	*	*Xij	*	*
!	!	!	!	!	!	!LO:SIC:v:t=custos g	!
.	.	.	.	.	.	4f\	.
!	!	!	!	!	!	!LO:LB:g=original	!
2C/	ad	.	.	.	.	4gny\	.
.	.	.	.	.	.	4e\	.
=104-	=104-	=104-	=104-	=104-	=104-	=104-	=104-
2F\	dex-	1A	.	2c\	ad	4f\	.
*	*	*Xlig	*	*	*	*	*
.	.	.	.	.	.	4g\	.
4D\	-te-	.	.	4f\	dex-	1a	-te-
4F\	.	.	.	8c\	-te-	.	.
.	.	.	.	8d\	-ra(m)	.	.
0E	-ra(m)	1B,	.	1e	Pa-	.	.
.	.	.	.	.	.	4g\	.
!	!	!	!	!	!	!LO:TX:a:t=P:problem:# above	!
.	.	.	.	.	.	4f#X\	.
=105-	=105-	=105-	=105-	=105-	=105-	=105-	=105-
.	.	1B	ad	1e	-tris	1g	-ram
*	*	*lig	*	*	*ij	*	*
4AA/	Pa-	1c	.	4e\	ad	4a\	Pa-
4A\	-tris	.	.	4c\	.	4e\	-tris
*	*ij	*	*	*	*	*	*
4F\	ad	.	.	4A\	dex-	4fny\	ad
4A\	dex-	.	.	4c\	.	8e\	.
.	.	.	.	.	.	8f\	.
=106-	=106-	=106-	=106-	=106-	=106-	=106-	=106-
2G\	-te-	1d	.	2B\	-te-	2g\	dex-
2F\	-ra(m)	.	.	2.c\	-ra(m)	2a\	-te-
*	*	*Xlig	*	*	*	*	*
*	*	*lig	*	*	*	*	*
1G	Pa-	1d	dex-	.	.	1g	-ram
.	.	.	.	8B\L	.	.	.
.	.	.	.	8A\J	.	.	.
.	.	.	.	2B\	Pa-	.	.
=107-	=107-	=107-	=107-	=107-	=107-	=107-	=107-
2C/	-tris	1c	.	2c\	-tris	2e\	Pa-
*	*Xij	*	*	*	*	*	*
4C/	Pa-	.	.	2e\	ad	2g\	-tris
4D/	.	.	.	.	.	.	.
*	*	*Xlig	*	*	*	*	*
*	*	*lig	*	*	*	*	*ij
4E\	.	1B	.	2e\	dex-	2.g\	ad
4F\	.	.	.	.	.	.	.
2G\	.	.	.	2d\	-te-	.	.
.	.	.	.	.	.	4g\	dex-
=108-	=108-	=108-	=108-	=108-	=108-	=108-	=108-
!	!	!LO:SIC:v:t=custos A	!	!	!	!	!
1C	.	1c	.	1e	-ra(m)	2e\	-te-
.	.	.	.	.	.	1g	-ra(m)
*	*	*Xlig	*	*	*	*	*
!	!	!LO:PB:g=original	!	!LO:SIC:v:t=custos B	!	!	!
1D	.	1A	-te-	1d	Pa-	.	.
!	!	!	!	!	!	!LO:TX:b:t=P:problem:# below	!
.	.	.	.	.	.	2f#X\	Pa-
!	!	!	!	!LO:LB:g=original	!	!	!
=109-	=109-	=109-	=109-	=109-	=109-	=109-	=109-
2GG/	-tris	1G	-ram	1B	-tris	1g	-tris
1G\	mi-	.	.	.	.	.	.
*	*	*lig	*	*	*Xij	*	*Xij
.	.	1B	Pa-	1r	.	2.d\	mi-
2G\	-ſe-	.	.	.	.	.	.
.	.	.	.	.	.	4d\	-ſe-
=110-	=110-	=110-	=110-	=110-	=110-	=110-	=110-
2.F\	-re-	1A	.	2.c\	mi-	2fny\	-re-
.	.	.	.	.	.	1a	-re
4F\	-re	.	.	4d\	-ſe-	.	.
*	*	*Xlig	*	*	*	*	*
0E	no-	1B,	-tris	2e\	-re-	.	.
.	.	.	.	2e\	-re	4g\	.
!	!	!	!	!	!	!LO:TX:a:t=P:problem:# above	!
.	.	.	.	.	.	4f#X\	.
=111-	=111-	=111-	=111-	=111-	=111-	=111-	=111-
.	.	1B	mi-	1e	no-	1g	no-
2AA/	-bis	1c	-ſe-	2e\	-bis	2a\	-bis
*	*ij	*	*	*	*ij	*	*ij
!LO:SIC:v:t=custos E	!	!	!	!	!	!	!
2A\	mi-	.	.	1e\	mi-	2.a\	mi-
!LO:LB:g=original	!	!	!	!	!	!	!
=112-	=112-	=112-	=112-	=112-	=112-	=112-	=112-
2E\	-ſe-	1B	-re-	.	.	.	.
.	.	.	.	.	.	4g\	-ſe-
2G\	-re-	.	.	2d\	-ſe-	2.g\	-re-
2D/	-re	1A	-re	2.d\	-re-	.	.
!	!	!	!	!	!	!LO:SIC:v:t=custos f	!
.	.	.	.	.	.	4fny\	-re
!	!	!	!	!	!	!LO:LB:g=original	!
2F\	no-	.	.	.	.	2.f\	no-
.	.	.	.	4c\	-re	.	.
=113-	=113-	=113-	=113-	=113-	=113-	=113-	=113-
1C	-bis	1G	.	1c	no-	.	.
.	.	.	.	.	.	8e\L	.
.	.	.	.	.	.	8d\J	.
.	.	.	.	.	.	2e\	-bis
*	*	*lig	*	*	*	*	*
2.D/	mi-	1F	no-	2A/	-bis	2d\	mi-
.	.	.	.	2.d\	mi-	2.f\	-ſe-
4D/	-ſe-	.	.	.	.	.	.
=114-	=114-	=114-	=114-	=114-	=114-	=114-	=114-
2.AA/	-re-	1A	.	.	.	.	.
.	.	.	.	4c\	-ſe-	4e\	.
.	.	.	.	2.c\	-re-	2e\	-re
4BB/	-re	.	.	.	.	.	.
*	*	*Xlig	*	*	*	*	*
1C	no-	1G	.	.	.	2e\	-re
.	.	.	.	4A\	-re	.	.
.	.	.	.	2c\	no-	2e\	no-
=115-	=115-	=115-	=115-	=115-	=115-	=115-	=115-
!	!	!LO:TX:t=P:problem:kreska pseudotaktowa	!	!	!	!	!
1GG;	-bis	1G	-bis.	1B;<	-bis	1d;	-bis
*	*Xij	*	*	*	*Xij	*	*Xij
1C	Quo-	1E	Quo-	2G/	quo-	2.c/	Quo-
.	.	.	.	1A\	-ni-	.	.
.	.	.	.	.	.	4c/	-ni-
=116-	=116-	=116-	=116-	=116-	=116-	=116-	=116-
1D	-ni-	1F	-ni-	.	.	1f	-am
.	.	.	.	1B	-am	.	.
1E	-am	1G	-am	.	.	1e	tu
.	.	.	.	2c\	tu	.	.
=117-	=117-	=117-	=117-	=117-	=117-	=117-	=117-
1AA	tu	1A	tu	2e\	ſo-	1c	ſo-
.	.	.	.	2e\	-l(us)	.	.
*	*	*lig	*	*	*	*	*
2BB/	ſo-	1G	ſo-	2rc	.	2d\	-l(us)
2C/	-l(us)	.	.	2c\	tu	2e\	.
=118-	=118-	=118-	=118-	=118-	=118-	=118-	=118-
1D	ſan-	1F	.	2.A/	ſo-	2f\	.
.	.	.	.	.	.	2d\	.
.	.	.	.	4B\	.	.	.
*	*	*Xlig	*	*	*	*	*
*	*	*lig	*	*	*	*	*
2C/	-ct(us)	1E	.	2c\	l(us)	2e\	.
*	*ij	*	*	*	*	*	*
2C/	tu	.	.	2G/	ſan-	1c\	ſan-
=119-	=119-	=119-	=119-	=119-	=119-	=119-	=119-
!	!	!	!	!LO:SIC:v:t=custos F	!	!	!
2FF/	ſo-	1F	.	1A	.	.	.
2FF/	-l(us)	.	.	.	.	2c/	-ct(us)
*	*	*Xlig	*	*	*	*	*ij
!	!	!	!	!LO:LB:g=original	!	!	!
1BB-X	ſan-	1D	lus	2.F/	.	1d	tu
.	.	.	.	4G/	.	.	.
=120-	=120-	=120-	=120-	=120-	=120-	=120-	=120-
*	*	*lig	*	*	*	*	*
0AA	.	1E	ſan-	0A	.	2.c/	ſo-
.	.	.	.	.	.	4B/	.
.	.	1F	.	.	.	2A/	-l(us)
.	.	.	.	.	.	2c/	ſan-
*	*	*Xlig	*	*	*	*	*
=121-	=121-	=121-	=121-	=121-	=121-	=121-	=121-
0GG	-ctus	1G,	-ct(us)	0D	-ct(us)	1B	-ct(us)
*	*Xij	*	*	*	*	*	*Xij
.	.	1B	Tu	.	.	1r	.
=122-	=122-	=122-	=122-	=122-	=122-	=122-	=122-
1rBB	.	1E	ſo-	1r	.	2r	.
.	.	.	.	.	.	2g\	Tu
!	!	!	!	!	!	!LO:TX:a:t=P:problem:# above	!
1E	Tu	1B	-l(us)	1e	Tu	2g#X\	ſo-
!	!	!	!	!	!	!LO:TX:a:t=P:problem:# above	!
.	.	.	.	.	.	2g#X\	-l(us)
=123-	=123-	=123-	=123-	=123-	=123-	=123-	=123-
*	*	*lig	*	*	*	*	*
1AA	ſo-	1c	Do-	1.e	ſo-	1.a	Do-
!LO:SIC:v:t=custos F	!	!LO:SIC:v:t=custos A	!	!	!	!	!
1E	-l(us)	1B	.	.	.	.	.
.	.	.	.	2e\	-l(us)	2g#X\	.
*	*	*Xlig	*	*	*	*	*
!LO:LB:g=original	!	!LO:LB:g=original	!	!	!	!	!
=124-	=124-	=124-	=124-	=124-	=124-	=124-	=124-
*	*	*lig	*	*	*	*	*
1F	Do-	1A	.	2c\	Do-	2a\	-mi-
!	!	!	!	!	!	!LO:SIC:v:t=custos g	!
.	.	.	.	2d\	-mi-	2f\	-n(us)
!	!	!	!	!	!	!LO:LB:g=original	!
*	*	*	*	*	*	*	*ij
1E	.	1G	.	2e\	-n(us)	2gny\	tu
.	.	.	.	2c\	Tu	2e\	ſo-
*	*	*Xlig	*	*	*	*	*
=125-	=125-	=125-	=125-	=125-	=125-	=125-	=125-
*lig	*	*lig	*	*	*	*	*
1D	-mi-	1F	-mi-	2A/	ſo-	1.f	-l(us)
.	.	.	.	2B\	-l(us)	.	.
1C	.	1G	.	1.c	al-	.	.
.	.	.	.	.	.	4e\	Do-
.	.	.	.	.	.	4d\	-mi-
*Xlig	*	*Xlig	*	*	*	*	*
=126-	=126-	=126-	=126-	=126-	=126-	=126-	=126-
2C/	-n(us)	1G,	-nus	.	.	2e\	-n(us)
*	*	*	*	*	*	*	*Xij
2G\	Tu	.	.	4B\	-tiſ-	2g\	Tu
.	.	.	.	4A\	.	.	.
2G\	ſo-	1d	Tu	1B	.	2g\	ſo-
2G\	-l(us)	.	.	.	.	2g\	-l(us)
=127-	=127-	=127-	=127-	=127-	=127-	=127-	=127-
*lig	*	*lig	*	*	*	*	*
1C	al-	1e	.	2.c\	.	2g\	al-
.	.	.	.	.	.	1g	-tiſ-
.	.	.	.	4B\	.	.	.
1D	.	1d	.	1A	.	.	.
.	.	.	.	.	.	2f#X\	-si-
!	!	!	!	!	!	!LO:TX:b:t=P:problem:# below	!
*Xlig	*	*Xlig	*	*	*	*	*
=128-	=128-	=128-	=128-	=128-	=128-	=128-	=128-
2.E\	.	1G	ſo-	1e	.	2g\	-m(us)
.	.	.	.	.	.	1g	Je-
4F\	.	.	.	.	.	.	.
2G\	.	1B	-lus	2d\	-si-	.	.
2E\	-tiſ-	.	.	2G/	-m(us),	2g\	-ſu
=129-	=129-	=129-	=129-	=129-	=129-	=129-	=129-
1D	-si-	1d	al-	2A/	Je-	1fny	Chri-
.	.	.	.	2B\	-ſu	.	.
*	*	*lig	*	*	*	*	*
2C/	-m(us)	1e	.	1c	Chri-	2e\	.
1c\	Je-	.	.	.	.	1g\	-ſte
=130-	=130-	=130-	=130-	=130-	=130-	=130-	=130-
.	.	1d	.	1G	-ſte	.	.
*	*	*	*	*	*	*	*ij
2B\	-ſu	.	.	.	.	2g\	Tu
*	*	*Xlig	*	*	*	*	*
1A	Chri-	1c	-tiſ-	2r	.	2.e\	ſo-
*	*	*	*	*	*ij	*	*
!	!	!	!	!LO:TX:t=P:problem:dźwięk niewidoczny	!	!	!
.	.	.	.	1e\yy	Je-	.	.
.	.	.	.	.	.	4f\	.
=131-	=131-	=131-	=131-	=131-	=131-	=131-	=131-
1G	-ſte	1B	-si-	.	.	2g\	-lus
!	!	!	!	!LO:LB:g=original	!	!	!
.	.	.	.	1d	.	2g\	al-
1rA	.	1A	-mus	.	.	2f\	-tiſ-
!	!	!	!	!LO:TX:a:t=P:problem:# above	!	!	!
.	.	.	.	2c#X\	-ſu	2e\	-si-
=132-	=132-	=132-	=132-	=132-	=132-	=132-	=132-
*	*ij	*	*	*	*	*	*
1G	Je	1B	Je-	2d\	Chri-	1d	-m(us)
.	.	.	.	2G/	-ſte	.	.
*	*	*	*	*	*Xij	*	*
2F\	-ſu	1c	-ſu	2cny\	Je-	2a\	Je-
2E\	.	.	.	2G/	-ſu	2.g\	-ſu
=133-	=133-	=133-	=133-	=133-	=133-	=133-	=133-
*	*	*lig	*	*	*	*	*
1D	Chri-	1d	Chri-	1A	Ch(ri-	.	.
.	.	.	.	.	.	8f\L	.
.	.	.	.	.	.	8e\J	.
.	.	.	.	.	.	2f\	Chri-
1GG	.	1B	.	1G	.	0g;<	-ſte
*	*	*Xlig	*	*	*	*	*Xij
=134-	=134-	=134-	=134-	=134-	=134-	=134-	=134-
!	!	!LO:TX:t=P:problem:kreska pseudotaktowa	!	!	!	!	!
1GG;	-ſte.	1G	-ſte.	1G;<	-ſt)e	.	.
*	*Xij	*	*	*	*	*	*
2G\	Cum	1d	Cum	2.B\	Cum	1g	Cum
1G\	ſan-	.	.	.	.	.	.
.	.	.	.	4c\	.	.	.
=135-	=135-	=135-	=135-	=135-	=135-	=135-	=135-
*	*	*lig	*	*	*	*	*
.	.	1B	ſan-	2d\	.	2.d\	ſan-
!LO:SIC:v:t=custos F	!	!	!	!	!	!	!
2G\	-cto	.	.	2G/	ſan-	.	.
.	.	.	.	.	.	4e\	.
!LO:LB:g=original	!	!	!	!	!	!	!
2F\	ſpi-	1c	.	4A/	.	2f\	-cto
.	.	.	.	4B\	.	.	.
2A\	.	.	.	2.c\	-cto	4e\	.
.	.	.	.	.	.	4f\	.
*	*	*Xlig	*	*	*	*	*
=136-	=136-	=136-	=136-	=136-	=136-	=136-	=136-
1G	-ri-	1d	-cto	.	.	2.g\	ſpi-
.	.	.	.	8B\L	.	.	.
.	.	.	.	8A\J	.	.	.
.	.	.	.	2B\	ſpi-	.	.
.	.	.	.	.	.	4g\	-(ri-
*	*	*lig	*	*	*	*	*
!	!	!	!	!	!	!LO:SIC:v:t=custos g	!
2C/	-tu	1e	ſpi-	1c	-ri-	1g	-tu)
1c\	ſpi-	.	.	.	.	.	.
!	!	!	!	!	!	!LO:PB:g=original	!
=137-	=137-	=137-	=137-	=137-	=137-	=137-	=137-
.	.	1d	.	1G	-tu	2r	.
*	*	*	*	*	*	*	*ij
2B\	.	.	.	.	.	2g\	Cum
*	*	*Xlig	*	*	*	*	*
*	*	*lig	*	*	*	*	*
1A	-ri-	1c	.	2r	.	2e\	ſan-
.	.	.	.	2c\	in	2f\	-cto
=138-	=138-	=138-	=138-	=138-	=138-	=138-	=138-
1G	-tu	1B	.	2.d\	glo-	2.g\	ſpi-
.	.	.	.	4d\	-ri-	4g\	-(ri-
*	*	*Xlig	*	*	*	*	*
!	!	!LO:SIC:v:t=custos d	!	!	!	!	!
1C	in	1c	-ri-	2e\	-a	2g\	-tu)
*	*	*	*	*	*	*	*Xij
.	.	.	.	2.c\	glo-	2e\	in
!	!	!LO:LB:g=original	!	!	!	!	!
=139-	=139-	=139-	=139-	=139-	=139-	=139-	=139-
1.G	glo-	1d	-tu	.	.	0g	glo-
.	.	.	.	8B\L	.	.	.
.	.	.	.	8A\J	.	.	.
.	.	.	.	4B\	.	.	.
.	.	.	.	4c\	.	.	.
.	.	1B	in	2.d\	-ri-	.	.
2G\	-ri-	.	.	.	.	.	.
.	.	.	.	4G/	-a	.	.
=140-	=140-	=140-	=140-	=140-	=140-	=140-	=140-
*	*	*lig	*	*	*	*	*
!	!	!	!	!LO:TX:t=P:problem:dżwięk niewidoczny	!	!	!
1D	-a	1d	glo-	1ryy	.	1f	-ri-
!	!	!	!	!LO:PB:g=original	!	!	!
2.A\	De-	1c	.	2r	.	2e\	-a
.	.	.	.	2f\	De-	2.a\	De-
4F\	-i	.	.	.	.	.	.
*	*	*Xlig	*	*	*	*	*
=141-	=141-	=141-	=141-	=141-	=141-	=141-	=141-
*	*	*lig	*	*	*	*	*
2G\	Pa-	1B	.	2d\	-i	.	.
.	.	.	.	.	.	4g\	.
2E\	.	.	.	2.e\	Pa-	2.g\	-i
1F	.	1A	.	.	.	.	.
.	.	.	.	4c\	.	4f\	.
.	.	.	.	1c\	-tris	1f\	Pa-
*	*	*Xlig	*	*	*	*	*
=142-	=142-	=142-	=142-	=142-	=142-	=142-	=142-
*	*	*lig	*	*	*	*	*
1C	-tris	1G	.	.	.	.	.
.	.	.	.	2c\	A-	4e\	.
.	.	.	.	.	.	4d\	.
2rC	.	1A	.	1.c	-men	1e	-tris
1AA/	A-	.	.	.	.	.	.
*	*	*Xlig	*	*	*	*	*
=143-	=143-	=143-	=143-	=143-	=143-	=143-	=143-
.	.	1E	-ri-	.	.	2re	.
2AA/	-me(n)	.	.	1A	.	1c	De-
*	*ij	*lig	*	*	*	*	*
2.FF/	A-	1F	-a	.	.	.	.
.	.	.	.	2.A/	.	2c/	-i
4GG/	.	.	.	.	.	.	.
=144-	=144-	=144-	=144-	=144-	=144-	=144-	=144-
4AA/	.	1E	.	.	.	4c/	Pa-
4BBny/	.	.	.	8G/L	A-	8B/L	.
.	.	.	.	8F/J	.	8A/J	.
2C/	.	.	.	4E/	.	4G/	.
.	.	.	.	4F/	.	4A/	.
*	*	*Xlig	*	*	*	*	*
*	*	*lig	*	*	*	*	*
1GG	.	1D	De-	1G	.	4B/	.
.	.	.	.	.	.	2c/	.
.	.	.	.	.	.	4B/	.
=145-	=145-	=145-	=145-	=145-	=145-	=145-	=145-
2C/	-me(n)	1E	.	1G	-men	2c/	-tris
*	*Xij	*	*	*	*	*	*ij
1C	De-	.	.	.	.	1e\	De-
*	*	*Xlig	*	*	*	*	*
*	*	*lig	*	*	*	*	*
.	.	1G	.	1.c	De-	.	.
!LO:SIC:v:t=custos F	!	!	!	!	!	!	!
2C/	-i	.	.	.	.	2e\	-i
!LO:LB:g=original	!	!	!	!	!	!	!
=146-	=146-	=146-	=146-	=146-	=146-	=146-	=146-
2F\	Pa-	1A	.	.	.	1f	Pa-
2D/	.	.	.	2d\	i	.	.
*	*	*Xlig	*	*	*	*	*
2E\	-tris	1G	-i	2B\	Pa-	2e\	.
2C/	A-	.	.	2c\	.	2.e\	.
=147-	=147-	=147-	=147-	=147-	=147-	=147-	=147-
*	*	*lig	*	*	*	*	*
1D	.	1F	Pa-	1A	-tris	.	.
.	.	.	.	.	.	8d\L	.
.	.	.	.	.	.	8c\J	.
!	!	!	!	!	!	!LO:SIC:v:t=custos e	!
.	.	.	.	.	.	2d\	.
!	!	!	!	!	!	!LO:LB:g=original	!
1AA	.	1E	.	1c	A-	2e\	-tris
.	.	.	.	.	.	1c\	De-
*	*	*Xlig	*	*	*	*	*
=148-	=148-	=148-	=148-	=148-	=148-	=148-	=148-
*	*	*lig	*	*	*	*	*
2FF/	-men	1F	-tris	1A	-men	.	.
*	*ij	*	*	*	*	*	*
2FF/	A-	.	.	.	.	2c/	-i
*	*	*	*	*	*ij	*	*
1BB-X	.	1D	.	2.F/	A-	1d	Pa-
.	.	.	.	4G/	.	.	.
*	*	*Xlig	*	*	*	*	*
=149-	=149-	=149-	=149-	=149-	=149-	=149-	=149-
*	*	*lig	*	*	*	*	*
1AA	.	1E	A-	2A/	.	1c	.
.	.	.	.	2A/	-men	.	.
1GG	.	1G	.	2.D/	A-	1B-X	-tris
.	.	.	.	4E/	.	.	.
*	*	*Xlig	*	*	*	*	*
=150-	=150-	=150-	=150-	=150-	=150-	=150-	=150-
*	*	*lig	*	*	*	*	*
2FF/	-men	1A	.	4F/	.	2A/	De-
.	.	.	.	4G/	.	.	.
2F\	A-	.	.	2A/	.	2f\	.
!	!	!	!	!LO:SIC:v:t=custos G	!	!	!
2G\	.	1B	.	2G/	-men	2d\	-i
*	*	*	*	*	*Xij	*	*
!	!	!	!	!LO:LB:g=original	!	!	!
1E\	.	.	.	1G/	De-	1g\	Pa-
*	*	*Xlig	*	*	*	*	*
=151-	=151-	=151-	=151-	=151-	=151-	=151-	=151-
*	*	*lig	*	*	*	*	*
.	.	1c	.	.	.	.	.
2F\	.	.	.	2A/	-i	4f\	.
.	.	.	.	.	.	4e\	.
1G	.	1B	.	2B\	Pa-	2.d\	.
.	.	.	.	2G/	-tris	.	.
.	.	.	.	.	.	4e\	.
*	*	*Xlig	*	*	*	*	*
=152-	=152-	=152-	=152-	=152-	=152-	=152-	=152-
*	*	*lig	*	*	*	*	*
2D/	-men	1A	.	2d\	A-	2f\	.
*	*Xij	*	*	*	*	*	*
1F	De-	.	.	2A/	.	2c/	.
.	.	1G	.	2B\	.	2d\	.
2E\	-i	.	.	2c\	-men	2e\	.
*	*	*Xlig	*	*	*	*	*
=153-	=153-	=153-	=153-	=153-	=153-	=153-	=153-
*	*	*lig	*	*	*ij	*	*
0D	Pa-	1F	.	0d	A-	2f\	-tris
*	*	*	*	*	*	*	*Xij
.	.	.	.	.	.	4d\	A-
.	.	.	.	.	.	4e\	.
!	!	!LO:SIC:v:t=custos B	!	!	!	!	!
.	.	1A	.	.	.	4f\	.
.	.	.	.	.	.	4g\	.
.	.	.	.	.	.	4a\	.
.	.	.	.	.	.	4f\	.
*	*	*Xlig	*	*	*	*	*
!	!	!LO:LB:g=original	!	!	!	!	!
=154-	=154-	=154-	=154-	=154-	=154-	=154-	=154-
*	*	*lig	*	*	*	*	*
1G	-tris	1B	.	1d	-men	4g\	.
.	.	.	.	.	.	4d\	.
.	.	.	.	.	.	1g\	.
2.D/	A-	1A	.	2rd	.	.	.
!	!	!	!	!	!	!LO:TX:a:t=P:problem:# above	!
.	.	.	.	1d\	A-	2f#X\	.
4C/	.	.	.	.	.	.	.
*	*	*Xlig	*	*	*	*	*
=155-	=155-	=155-	=155-	=155-	=155-	=155-	=155-
*	*	*lig	*	*	*	*	*
2BBny/	.	1G	.	.	.	2g\	-men
*	*	*	*	*	*	*	*ij
2C/	.	.	.	1c	.	1e	A-
1AA	.	1F	.	.	.	.	.
.	.	.	.	2A/	-men	4d\	.
.	.	.	.	.	.	4c\	.
*	*	*Xlig	*	*	*	*	*
=156-	=156-	=156-	=156-	=156-	=156-	=156-	=156-
1GG	.	0G	.	2B\	.	1Bny	-men
.	.	.	.	2d\	A-	.	.
1C	.	.	.	2G/	.	1e	A-
.	.	.	.	1c\	.	.	.
=157-	=157-	=157-	=157-	=157-	=157-	=157-	=157-
!	!	!LO:TX:b:B:t=Graduale	!	!	!	!LO:TX:b:t=Gradſ.	!
0GGl\;;	-men.	0Gl;\	-men.	.	.	0dl;<	-men
*	*	*	*	*	*	*	*Xij
.	.	.	.	4B\	.	.	.
.	.	.	.	4A/	.	.	.
!	!	!	!	!LO:TX:b:B:t=Graduale.	!	!	!
.	.	.	.	1Bl;;	-men	.	.
*	*	*	*	*	*Xij	*	*
==	==	==	==	==	==	==	==
*-	*-	*-	*-	*-	*-	*-	*-
!!!system-decoration: [s1,s2,s3,s4]
!!!RDF**kern: > = above
!!!RDF**kern: < = below
!!!RDF**kern: l = terminal long
!!!AIN: 1 alto 1 bass 1 soprn 1 tenor
!!!ENC: Marta Lawrence
!!!END: 2021-03-07
!!!ENC: Tomasz Grochalski
!!!END: 2021-02-22
